!!!!SEGMENT: pl-kk--kk-i-203--002_anonim--os-iusti-meditabitur.krn
!!!cenid: 16xx:761
!!!COM: Anonim
!!!COM-rismid: pe30004985
!!!CDT:
!!!CNT:
!!!OTL: Os iusti meditabitur
!!!PDT:
!!!AGN: Sacred
!!!SMS-siglum: PL-Kk
!!!SMS-shelfmark: Kk.I.203
!!!SMS-shelfwork: 002 W
!!!SMS-variant:
!!!SMS-altvar:
!!!NIFC-rismid: 1001143747
!!!URL-scan: http://repozytorium.nifc.pl/skany/pl-kk-nut--i-203
!!!ONB-nifc: UWAGA: utwory w zbiorze: 1. Justum deduxit Dominus, 2. Os iusti meditabitur
**kern	**text	**kern	**text	**kern	**text	**kern	**text	**dynam	**kern	**text
*part5	*part5	*part4	*part4	*part3	*part3	*part2	*part2	*part2	*part1	*part1
*staff5	*staff5	*staff4	*staff4	*staff3	*staff3	*staff2	*staff2	*	*staff1	*staff1
*I"Baſso Ripieno.	*	*I"Baſso.	*	*I"Tenore.	*	*I"Alto.	*	*	*I"Canto.	*
*I'B.	*	*I'B.	*	*I'T.	*	*I'A.	*	*	*I'C.	*
*clefF4	*	*clefF4	*	*clefC4	*	*clefC3	*	*	*clefC1	*
*k[b-]	*	*k[b-]	*	*k[b-]	*	*k[b-]	*	*	*k[b-]	*
*M3/2	*	*M3/2	*	*M3/2	*	*M3/2	*	*	*M3/2	*
=1	=1	=1	=1	=1	=1	=1	=1	=1	=1	=1
2r	.	2r	.	2r	.	2r	.	.	2r	.
1B-\	Os	1B-\	Os	1B-\	Os	1f\	Os	.	1dd\	Os
=2	=2	=2	=2	=2	=2	=2	=2	=2	=2	=2
*2\right	*	*2\right	*	*2\right	*	*2\right	*	*	*2\right	*
2B-\	Jus-	2B-\	Jus-	2c\	Jus-	2g\	Jus-	.	2een\	Jus-
2B-,<\	-ti	2B-,<\	-ti	2c,<\	-ti	2g,<\	-ti	.	2ee,\	-ti,
*	*ij	*	*ij	*	*ij	*	*ij	*	*	*
2B-\	Os	2B-\	Os	2c\	Os	2g\	Os	.	2ee\	Os
=3	=3	=3	=3	=3	=3	=3	=3	=3	=3	=3
1A\	Jus-	1An\	Jus-	1c\	Jus-	1a\	Jus-	.	1ff\	Jus-
2A\	-ti	2A\	-ti	2c\	-ti	2f,<\	-ti	.	2cc\	-ti,
*	*Xij	*	*Xij	*	*Xij	*	*Xij	*	*	*
!	!	!	!	!LO:LB:g=original	!	!	!	!	!	!
=4	=4	=4	=4	=4	=4	=4	=4	=4	=4	=4
1G\	me-	1G\	me-	(2d\	me-	1f\	me-	.	1b-X\	me-
.	.	.	.	2B-\)	.	.	.	.	.	.
2G\	-di-	2G\	-di-	2B-\	-di-	2fn\	-di-	.	2b-\	-di-
=5	=5	=5-	=5	=5	=5	=5	=5	=5	=5	=5
2.F\	-ta-	2.F\	-ta-	2.c\	-ta-	2.f\	-ta-	.	2.a\	-ta-
4F\	-bi-	4F\	-bi-	4c\	-bi-	4f\	-bi-	.	4a\	-bi-
2F\	-tur	2F\	-tur	2c\	-tur	2f\	-tur	.	2a,<\	-tur
!	!	!	!	!	!	!LO:LB:g=original	!	!	!	!
=6	=6	=6	=6	=6	=6	=6	=6	=6	=6	=6
*	*ij	*	*ij	*	*ij	*	*	*	*	*ij
1D\	me-	1D\	me-	1d\	me-	1f\	me-	.	1b-X\	me-
2D/	-di-	2D\	-di-	4d\	-di-	2f\	-di-	.	2b-\	-di-
.	.	.	.	4c\	.	.	.	.	.	.
=7	=7	=7-	=7	=7	=7	=7	=7	=7	=7	=7
2E-X\	-ta-	2E-X\	-ta-	2B-\	-ta-	2g\	-ta-	.	2b-\	-ta-
4E-\	-bi-	4E-\	-bi-	4B-\	-bi-	4g\	-bi-	.	4b-\	-bi-
4D,<\	-tur	4D,\	-tur	4B-,<\	-tur	4f,<\	-tur	.	4b-,<\	-tur
*	*Xij	*	*Xij	*	*Xij	*	*	*	*	*Xij
2C/	Sa-	2C/	Sa-	2A/	Sa-	2e-X\	Sa-	.	2ee-X\	Sa-
=8	=8	=8	=8	=8	=8	=8	=8	=8	=8	=8
2BB-/	-pi-	2BB-/	-pi-	2B-\	-pi-	2f\	-pi-	.	2dd\	-pi-
2F\	-en-	2F\	-en-	2.B-\	-en-	2.f\	-en-	.	2.cc\	-en-
2FF/	-ti-	2FF/	-ti-	.	.	.	.	.	.	.
.	.	.	.	4A\	-ti-	4e-X\	-ti-	.	4cc\	-ti-
!	!	!	!	!	!	!	!	!	!LO:LB:g=original	!
=9	=9	=9	=9	=9	=9	=9	=9	=9	=9	=9
2BB-,</	-um	2BB-,</	-um	2B-\	-am	2d,<\	-am!	.	2dd\	-am!
!	!	!	!	!	!	!	!	!LO:DY:a:t=f.	!	!
2BB-/	Sa-	2BB-/	Sa-	2r	.	1B-/	et	f	2r	.
2BB-/	-pi-	2BB-/	-pi-	2r	.	.	.	.	2r	.
!LO:LB:g=original	!	!	!	!	!	!	!	!	!	!
=10	=10	=10-	=10	=10	=10	=10	=10	=10	=10	=10
1BB-/	-en-	1BB-/	-en-	00.r	.	1c\	lin-	.	1.r	.
2AA/	-ti-	2AA/	-ti-	.	.	2c/	-gua	.	.	.
=11-	=11	=11-	=11	=11	=11	=11	=11	=11	=11	=11
2BB-/	-um	2BB-/	-um	.	.	2d\	e-	.	2r	.
2r	.	2r	.	.	.	2B-,</	-jus	.	1f/	et
2r	.	2r	.	.	.	2f\	et	.	.	.
!	!	!LO:LB:g=original	!	!	!	!	!	!	!	!
=12	=12	=12	=12	=12	=12	=12	=12	=12	=12	=12
1.r	.	1.r	.	.	.	1f\	lin-	.	1g\	lin-
.	.	.	.	.	.	2en\	-gua	.	2g/	-gua
=13-	=13	=13	=13	=13	=13	=13	=13	=13	=13	=13
2r	.	2r	.	.	.	2f\	e-	.	2a\	e-
1BB-/	et	1BB-/	et	.	.	2f,<\	-jus	.	2f,</	-jus
*	*	*	*	*	*	*	*ij	*	*	*ij
!	!	!	!	!	!	!	!	!	!LO:TX:a:t=P:problem:♭ above	!
.	.	.	.	.	.	2f\	et	.	2b-X\	et
=14-	=14	=14-	=14	=14	=14	=14	=14	=14	=14	=14
1C/	lin-	1C/	lin-	1.r	.	1e-X\	lin-	.	1b-\	lin-
2C/	-gua	2C/	-gua	.	.	2e-\	-gua	.	2a\	-gua
=15	=15	=15	=15	=15	=15	=15	=15	=15	=15	=15
2D/	e-	2D/	e-	2r	.	2d\	e-	.	2b-\	e-
!	!	!	!	!	!	!	!	!	!LO:TX:a:t=P:problem:♭ above	!
2BB-,</	-jus	2BB-,</	-jus	1F/	et	2d\	-jus	.	2b-X,<\	-jus
*	*ij	*	*ij	*	*	*	*Xij	*	*	*Xij
2F\	et	2F\	et	.	.	2r	.	.	2cc\	et
=16	=16	=16	=16	=16-	=16	=16	=16	=16	=16	=16
!	!	!	!	!	!	!	!	!	!LO:TX:a:t=P:problem:♮ above	!
1F\	lin-	1F\	lin-	1G/	lin-	1.r	.	.	1bn\	lin-
2E\	-gua	2E\	-gua	2G/	-gua	.	.	.	2b\	-gua
=17	=17	=17	=17	=17	=17	=17	=17	=17	=17	=17
2F\	e-	2F\	e-	2A/	e-	2r	.	.	2a\	e-
2F,\	-jus	2F,<\	-jus	2F,</	-jus	2r	.	.	2cc,<\	-jus
*	*Xij	*	*Xij	*	*	*	*	*	*	*
2D\	lo-	2D\	lo-	2B-\	lo-	2f\	lo-	.	2dd\	lo-
=18	=18	=18	=18	=18	=18	=18	=18	=18	=18	=18
!	!	!	!	!	!	!	!	!	!LO:TX:a:t=P:problem:♭ above	!
2E-X\	-que-	2E-X\	-que-	2e-X\	-que-	2g\	-que-	.	2b-X\	-que-
2E-,<\	-tur	2E-,<\	-tur	2e-,<\	-tur	2g,<\	-tur	.	2b-<\	-tur
2D\	Ju-	2D\	Ju-	2f\	Ju-	2f\	Ju-	.	2cc\	Ju-
!	!	!	!	!	!	!LO:LB:g=original	!	!	!	!
=19-	=19	=19-	=19	=19	=19	=19	=19	=19	=19	=19
1C/	-di-	1C/	-di-	1c\	-di-	1e-X\	-di-	.	1b-\	-di-
2C/	-ci-	2C/	-ci-	2c\	-ci-	2e-\	-ci-	.	2a\	-ci-
=20	=20	=20	=20	=20-	=20	=20	=20	=20	=20	=20
2BB-,</	-um	2BB-,</	-um	2d,<\	-um	2d\	-um	.	2b-,<\	-um
1F\	et	1F\	et	1F/	et	2r	.	.	1cc\	et
.	.	.	.	.	.	2r	.	.	.	.
=21-	=21	=21	=21	=21	=21	=21	=21	=21	=21	=21
1G\	lin-	1G\	lin-	1F/	lin-	1.r	.	.	1b-X\	lin-
2G\	-gua	2G\	-gua	2E/	-gua	.	.	.	2b-\	-gua
=22	=22	=22-	=22	=22-	=22	=22-	=22	=22	=22	=22
(2A\	e-	2A\	e-	2F/	e-	2r	.	.	2a\	e-
2F,<\)	-jus	2F,<\	-jus	2F/	-jus	2r	.	.	2a,<\	-j(us)
*	*	*	*ij	*	*	*	*	*	*	*
2B-\	et	2B-\	et	2r	.	2d\	et	.	2b-\	et
!LO:LB:g=original	!	!	!	!LO:LB:g=original	!	!	!	!	!LO:LB:g=original	!
=23	=23	=23	=23	=23	=23	=23	=23	=23	=23-	=23
1B-\	lin-	1B-\	lin-	1.r	.	1en\	lin-	.	1cc\	lin-
2A\	-gua	2A\	-gua	.	.	2f\	-gua	.	2cc\	-gua
=24-	=24	=24-	=24	=24	=24	=24	=24	=24	=24	=24
2B-\	e-	2B-\	e-	2r	.	2f\	e-	.	2dd\	e-
2BB-,</	-jus	2BB-,</	-jus	(2d\	et	2f,<\	-jus	.	2b-,<\	-jus
*	*ij	*	*Xij	*	*	*	*ij	*	*	*ij
2D\	et	2D\	et	2B-\)	.	2f\	et	.	2dd\	et
=25	=25	=25-	=25	=25	=25	=25	=25	=25	=25	=25
1En\	lin-	1En\	lin-	1B-\	lin-	1g\	lin-	.	1cc\	lin-
2E\	-gua	2E\	-gua	2B-\	-gua	2g\	-gua	.	2cc\	-gua
=26-	=26	=26-	=26	=26	=26	=26	=26	=26	=26	=26
2F\	e-	2F\	e-	2A\	e-	2f\	e-	.	2cc\	e-
2F,<\	-jus	2F,<\	-jus	2A,<\	-jus	2f,<\	-jus	.	2cc,<\	-jus
*	*Xij	*	*	*	*	*	*Xij	*	*	*Xij
2A\	lo-	2A\	lo-	2c\	lo-	2f\	lo-	.	2cc\	lo-
!	!	!LO:LB:g=original	!	!	!	!	!	!	!	!
=27	=27	=27	=27	=27	=27	=27	=27	=27	=27	=27
2B-\	-que-	2B-\	-que-	2B-\	-que-	2d\	-qu-	.	2dd\	-qu-
2G,<\	-tur	2G,<\	-tur	2B-\	-tur	2en,<\	-et	.	2b-,<\	-e-
2F\	Ju-	2F\	Ju-	2A\	Ju-	2f\	Ju-	.	2cc\	-t(ur)
=28-	=28	=28	=28	=28	=28	=28	=28	=28	=28	=28
1c\	-di-	1c\	-di-	1G/	-di-	2.f\	-di-	.	2dd\	Ju-
.	.	.	.	.	.	.	.	.	2.cc\	-di-
.	.	.	.	.	.	4f\	-ci-	.	.	.
2C/	-ci-	2C/	-ci-	2G/	-ci-	2en,<\	-um.	.	.	.
.	.	.	.	.	.	.	.	.	4cc\	-ci-
=29	=29	=29	=29	=29	=29	=29	=29	=29	=29-	=29
*M2/2	*	*M2/2	*	*M2/2	*	*M2/2	*	*	*M2/2	*
*met(c|)	*	*met(c|)	*	*met(c|)	*	*met(c|)	*	*	*met(c|)	*
*lig	*	*lig	*	*	*	*	*	*	*	*
!	!	!	!	!	!	!	!	!LO:DY:a:t=for.	!	!
1F\	-um	1F\	-um	2A,</	-um	2.f\	Ho-	f	2cc\	-um
.	.	.	.	2A/	Ju-	.	.	.	2r	.
.	.	.	.	.	.	4f\	-ne-	.	.	.
=30	=30	=30	=30	=30	=30	=30	=30	=30	=30	=30
1C/	.	1C/	.	2.G/	-di-	2en\	-ſta-	.	2.cc\	Ho-
.	.	.	.	.	.	2c,</	-vit	.	.	.
.	.	.	.	4G/	-ci-	.	.	.	4cc\	-ne-
*Xlig	*	*Xlig	*	*	*	*	*	*	*	*
=31	=31	=31	=31	=31-	=31	=31	=31	=31	=31	=31
1r	.	1r	.	1G/	-ium	2d\	il-	.	2b-X\	-sta-
.	.	.	.	.	.	2e\	-lum	.	2g/	-vit
!	!	!	!	!	!	!LO:LB:g=original	!	!	!	!
=32	=32	=32	=32	=32	=32	=32	=32	=32	=32	=32
!	!	!	!	!LO:SIC:v:t=custos c	!	!	!	!	!	!
2.F\	Ho-	2.F\	Ho-	1r	.	4f\	in-	.	4a\	Il-
.	.	.	.	.	.	4g\	.	.	4b-\	.
.	.	.	.	.	.	4a\	.	.	1cc\	.
4F\	-ne-	4G\	-ne-	.	.	4f\	.	.	.	.
!	!	!	!	!LO:LB:g=original	!	!	!	!	!	!
=33-	=33	=33-	=33	=33	=33	=33	=33	=33	=33-	=33
2E\	-ſta-	2E\	-ſta-	2.c\	ho-	2g\	.	.	.	.
2C/	-vit	2C/	-vit	.	.	2e\	la-	.	2g/	.
.	.	.	.	4c\	-ne-	.	.	.	.	.
=34	=34	=34	=34	=34	=34	=34	=34	=34	=34	=34
2D\	il-	2D\	il-	2B-\	-sta-	2f\	-bo-	.	2dd\	.
2E\	-lus	2E\	-lus	2G/	-vit	2g\	-ti-	.	2cc,<\	-lum
=35-	=35	=35-	=35	=35	=35	=35-	=35	=35	=35	=35
2F\	in	2F\	in	2A\	in	1f\,<	-b(us)	.	2.ff\	ho-
2D/	la-	2D/	la-	2Bn\	la-	.	.	.	.	.
.	.	.	.	.	.	.	.	.	4ff\	-ne-
=36-	=36	=36	=36	=36	=36	=36	=36	=36	=36-	=36
2.C/	-bo-	2.C/	-bo-	2.c\	-bo-	1r	.	.	2een\	-ſta-
.	.	.	.	.	.	.	.	.	2cc\	-vit
4C/	-ri-	4C/	-ri-	4c\	-ti-	.	.	.	.	.
!LO:LB:g=original	!	!	!	!	!	!	!	!	!	!
=37	=37	=37-	=37	=37-	=37	=37	=37	=37	=37	=37
2BB-,</	-b(us)	2BB-,</	-b(us)	1G/	-b(us)	2.g\	ho-	.	2dd\	il-
2GG/	in	2GG/	in	.	.	.	.	.	2ee\	-lum
.	.	.	.	.	.	4g\	-ne-	.	.	.
!	!	!	!	!	!	!	!	!	!LO:LB:g=original	!
=38-	=38	=38-	=38	=38	=38	=38	=38	=38	=38	=38
2AA/	.	2AA/	.	1r	.	2f\	-ſta-	.	2ff\	in
2BB-/	.	2BB-/	.	.	.	2d\	-vit	.	2ff\	la-
=39	=39	=39	=39	=39	=39	=39-	=39	=39	=39-	=39
2C,</	.	2C/	.	2.c\	ho-	2en,<\	in	.	2cc\	-bo-
2AA/	la-	2AA/	la-	.	.	2f\	la-	.	1f/	.
.	.	.	.	4c\	-ne-	.	.	.	.	.
=40-	=40	=40-	=40	=40	=40	=40	=40	=40	=40-	=40
2GG/	.	2GG/	.	2B-\	-sta-	2.g\	-bo-	.	.	.
2G\	-bo-	2G\	-bo-	2G/	-vit	.	.	.	2e/	.
.	.	.	.	.	.	4g\	-ri-	.	.	.
=41-	=41	=41-	=41	=41-	=41	=41-	=41	=41	=41	=41
1F\	.	1F\	.	4A\	in	1c\,<	-b(us)	.	2.f/	.
.	.	.	.	4B-\	la-	.	.	.	.	.
.	.	.	.	1c\	-bo-	.	.	.	.	.
.	.	.	.	.	.	.	.	.	4e/	.
=42	=42	=42-	=42	=42-	=42	=42	=42	=42	=42-	=42
2G\	.	2G\	.	.	.	2r	.	.	4d/	.
.	.	.	.	.	.	.	.	.	4c/	.
2GG/	-ri-	2GG/	-ri-	2Bn\	-ri-	1g\	et	.	2d/	-ri-
=43	=43	=43	=43	=43	=43	=43-	=43	=43	=43	=43
2C,</	-b(us)	2C,</	-b(us)	2c,<\	-b(us)	.	.	.	2e,</	-b(us)
1C/	et	1C/	et	1c\	et	2g\	com-	.	1g/	et
=44-	=44	=44-	=44	=44-	=44	=44	=44	=44	=44-	=44
.	.	.	.	.	.	2e\	-ple-	.	.	.
2C/	com-	2C/	com-	2c\	com-	1f,<\	-vit	.	2g/	com-
=45-	=45	=45-	=45	=45	=45	=45-	=45	=45	=45-	=45
(2.F\	-ple-	(2.F\	-ple-	1c\	-ple-	.	.	.	1a\	-ple-
.	.	.	.	.	.	[<2a\	com-	.	.	.
4E\)	.	4E\)	.	.	.	.	.	.	.	.
=46-	=46	=46-	=46	=46-	=46	=46	=46	=46	=46-	=46
!	!	!	!	!	!	!LO:N:xstem:cue	!	!	!	!
1D\	-vit	1D\	-vit	2d,<\	-vit	4a\]	.	.	2a,<\	-vit
.	.	.	.	.	.	4g\	.	.	.	.
*	*	*	*	*	*	*	*	*	*	*ij
.	.	.	.	1A\	et	2f\	.	.	1dd\	et
=47-	=47	=47-	=47	=47-	=47	=47-	=47	=47	=47	=47
2AA,</	.	2AA,</	.	.	.	1e\	-ple-	.	.	.
2A\	com-	2A\	com-	2A/	com-	.	.	.	2cc#X\	com-
=48-	=48	=48-	=48	=48	=48	=48-	=48	=48	=48	=48
1D\	-ple-	1D\	-ple-	1A\	-ple-	2f#X,<\	-vit	.	2dd\	-ple-
*	*	*	*	*	*	*	*ij	*	*	*
.	.	.	.	.	.	2f#\	com-	.	2dd\	-vit
*	*	*	*	*	*	*	*	*	*	*Xij
=49-	=49	=49	=49	=49	=49	=49	=49	=49	=49	=49
2G,<\	-vit	2G,<\	-vit	2B-,<\	-vit	2g\	-ple-	.	1dd\	la-
2G\	/com-	2G\	/com-	2B-\	com-	1g\	-vit	.	.	.
*	*	*	*	*	*	*	*Xij	*	*	*
=50-	=50	=50-	=50	=50-	=50	=50-	=50	=50	=50-	=50
2C/	-ple-	2C/	-ple-	2c\	-ple-	.	.	.	0een\	-bo-
1C,</	-vit/	1C,</	-vit/	1c\	vit	2g\	com-	.	.	.
=51-	=51	=51-	=51	=51-	=51	=51	=51	=51	=51-	=51
.	.	.	.	.	.	2g\	-ple-	.	.	.
2C/	la-	2C/	la-	2c\	la-	2g\	-vit	.	.	.
!LO:LB:g=original	!	!	!	!LO:LB:g=original	!	!LO:LB:g=original	!	!	!	!
=52	=52	=52-	=52	=52	=52	=52	=52	=52	=52-	=52
1F\	-bo-	1F\	-bo-	2c\	-bo-	(2.a\	la-	.	2ff,<\	-res
.	.	.	.	2A/	.	.	.	.	2cc\	la-
.	.	.	.	.	.	4g\)	.	.	.	.
=53-	=53	=53-	=53	=53-	=53	=53-	=53	=53	=53	=53
2D,<\	-res	2D\	-res	2B-,<\	-res	2f\	-bo-	.	2dd\	-bo-
1E-X\	il-	1E-X\	il-	2B-\	il-	1g\	-res	.	1b-,<\	-res
=54-	=54	=54-	=54	=54	=54	=54-	=54	=54	=54-	=54
.	.	.	.	2G/	-li-	.	.	.	.	.
2D/	-li-	2D/	-li-	1B-\	.	2f\	il-	.	2b-\	il-
=55-	=55	=55-	=55	=55-	=55	=55-	=55	=55	=55	=55
1C/	.	1C/	.	.	.	1e-X\	-li-	.	1cc\	-li-
.	.	.	.	2A\	.	.	.	.	.	.
=56-	=56	=56-	=56	=56	=56	=56-	=56	=56	=56-	=56
1BB-/	-(us)	1BB-/	-(us)	0B-\	-us	2d,<\	-q(us)	.	2f,</	-us
.	.	.	.	.	.	2f\	com-	.	2f/	com-
=57	=57	=57	=57	=57-	=57	=57	=57	=57	=57	=57
2r	.	2r	.	.	.	1d\	-ple-	.	2ff\	-ple-
2B-\	com-	2B-\	com-	.	.	.	.	.	1dd\	vit
=58-	=58	=58-	=58	=58	=58	=58-	=58	=58	=58-	=58
1G\,<	-ple-	1G\	-ple-	1r	.	2B-,</	-vit	.	.	.
.	.	.	.	.	.	2g\	la-	.	2b-\	la-
!	!	!	!	!	!	!	!	!	!LO:LB:g=original	!
=59-	=59	=59-	=59	=59-	=59	=59	=59	=59	=59	=59
1F\	-vit	1F\	-vit	2r	.	2.an\	-bo-	.	2cc\	-bo-
.	.	.	.	2f\	com-	.	.	.	2.dd\	.
.	.	.	.	.	.	4g\	.	.	.	.
=60	=60	=60	=60	=60-	=60	=60-	=60	=60	=60-	=60
2r	.	2r	.	1d\	-ple-	(4f\	.	.	.	.
.	.	.	.	.	.	4e\	.	.	4cc\	.
2G\	la-	2G\	la-	.	.	4d\	.	.	2b-\	.
.	.	.	.	.	.	4g\)	.	.	.	.
=61-	=61	=61-	=61	=61	=61	=61	=61	=61	=61	=61
2.A\	-bo-	2.A\	-bo-	2c,<\	-vit	2e,<\	-res	.	1a\	-res
.	.	.	.	2c\	la-	2.a\	il-	.	.	.
4G,<\	.	4G\	.	.	.	.	.	.	.	.
=62-	=62	=62-	=62	=62-	=62	=62-	=62	=62	=62-	=62
4F\	.	4F\	.	2c\	-bo-	.	.	.	2r	.
4E\	.	4E\	.	.	.	4g\	.	.	.	.
4D\	.	4D\	.	[<2d\	.	[<2f\	.	.	2a\	il-
4C\	.	4C\	.	.	.	.	.	.	.	.
=63-	=63	=63-	=63	=63	=63	=63	=63	=63	=63	=63
!	!	!	!	!LO:N:xstem:cue	!	!	!	!	!	!
1BB-/	.	1BB-/	.	4d\]	.	1f\]	.	.	2b-\	-li-
.	.	.	.	4c\	.	.	.	.	.	.
.	.	.	.	4B-\	.	.	.	.	1dd\	.
.	.	.	.	4A\	.	.	.	.	.	.
=64-	=64	=64	=64	=64-	=64	=64-	=64	=64	=64	=64
2C,</	-res	2C,</	-res	0G/	.	1en\	.	.	.	.
2C/	il-	2C/	il-	.	.	.	.	.	1cc\	.
=65	=65	=65	=65	=65-	=65	=65-	=65	=65	=65-	=65
(2G\	-li-	(2G\	-li-	.	.	1d\	-li-	.	.	.
2GG/)	.	2GG/)	.	.	.	.	.	.	2bn\	.
=66-	=66	=66-	=66	=66-	=66	=66-	=66	=66	=66-	=66
2C,</	-(us)	2C,</	-(us)	2G,</	-res	2e,<\	-us	.	2cc,<\	-us
*	*	*	*	*	*ij	*	*	*	*	*
2G\	la-	2G\	la-	2B-\	la-	2g\	la-	.	2dd\	la-
=67-	=67	=67-	=67	=67	=67	=67	=67	=67	=67-	=67
(2E-X\	-bo-	(2E-X\	-bo-	1c\	-bo-	(2g\	-bo-	.	1ee-X\	-bo-
2C/)	.	2C/)	.	.	.	2e-X\)	.	.	.	.
=68	=68	=68	=68	=68	=68	=68-	=68	=68	=68	=68
2GG,</	-res	2GG,</	-res	2B-,<\	-res	2g,<\	-res	.	2dd,\	-res
*	*ij	*	*ij	*	*Xij	*	*	*	*	*
2D\	la-	2D\	la-	(2d\	la-	1f\	la-	.	1dd\	la-
=69	=69	=69-	=69	=69	=69	=69-	=69	=69	=69-	=69
1E-X\	-bo-	1E-X\	-bo-	2B-\)	.	.	.	.	.	.
.	.	.	.	2G/	-bo-	2e-X\	-bo-	.	4cc\	-bo-
.	.	.	.	.	.	.	.	.	4b-\	.
=70	=70	=70	=70	=70-	=70	=70	=70	=70	=70	=70
2C,</	-res	2C,</	-res	2G,</	-res	2e,<\	-res	.	2a\	.
*	*Xij	*	*Xij	*	*	*	*	*	*	*
2C/	il-	2C/	il-	2G/	il-	2e\	il-	.	1a\	res
=71-	=71	=71-	=71	=71	=71	=71-	=71	=71	=71-	=71
0D\	-li-	0D\	-li-	2F#X/	-li-	0d\	-li-	.	.	.
.	.	.	.	1G/	.	.	.	.	2b-X\	il-
=72-	=72	=72-	=72	=72-	=72	=72-	=72	=72	=72	=72
.	.	.	.	.	.	.	.	.	1a\	-li-
.	.	.	.	2F#X/	.	.	.	.	.	.
=73-	=73	=73	=73	=73-	=73	=73	=73	=73	=73	=73
2GG,</	-(us)	2GG,</	-(us)	2G,</	-us	2d\	-(um)	.	2bn,<\	-(us)
2GG/	la-	2GG/	la-	2G/	la-	2d\	la-	.	2b\	la-
=74	=74	=74	=74	=74	=74	=74	=74	=74	=74-	=74
0C/	-bo-	0C/	-bo-	(<2G/	-bo-	2e-X\	-bo-	.	2cc\	-bo-
.	.	.	.	1c\	.	1g\	.	.	1ee-X\	.
=75-	=75	=75-	=75	=75-	=75	=75-	=75	=75	=75-	=75
!	!	!	!	!	!	!LO:SIC:v:t=custos d	!	!	!	!
.	.	.	.	2G/)	.	2eny\	.	.	2cc\	.
!	!	!	!	!	!	!LO:LB:g=original	!	!	!	!
=76-	=76	=76	=76	=76	=76	=76	=76	=76	=76	=76
2GG,</	-res	2GG,</	-res	2G/	-res	2d,<\	-res	.	2bn\	-res
2GG/	il-	2GG/	il-	2G/	il-	2d\	il-	.	2b\	il-
=77	=77	=77-	=77	=77-	=77	=77	=77	=77	=77-	=77
0C/	-li-	0C/	-li-	0G/	-li-	0e-\	-li-	.	0cc\	-li-
=78-	=78	=78-	=78	=78-	=78	=78-	=78	=78	=78-	=78
=79-	=79	=79	=79	=79	=79	=79-	=79	=79	=79	=79
0GG/;	-us	0GG/;	-us	0G/;	-us.	0d\;	-us.	.	0bn\;	-us.
==	==	==	==	==	==	==	==	==	==	==
*-	*-	*-	*-	*-	*-	*-	*-	*-	*-	*-
!!!system-decoration: [(s1,s2,s3,s4,s5)]
!!!RDF**kern: > = above
!!!RDF**kern: < = below
!!!EED: Leszek Kubiak
!!!EST: 2021-02-19
!!!ENC:Berenika Jozajtis
!!!END:2021-02-14
